svgs/sharp-thin/high-definition.svg

<svg xmlns="http://www.w3.org/2000/svg" viewBox="0 0 576 512"><!--! Font Awesome Pro 6.6.0 by @fontawesome - https://fontawesome.com License - https://fontawesome.com/license (Commercial License) Copyright 2024 Fonticons, Inc. --><path d="M560 48l0 416L16 464 16 48l544 0zM16 32L0 32 0 48 0 464l0 16 16 0 544 0 16 0 0-16 0-416 0-16-16 0L16 32zM320 160l0 8 0 176 0 8 8 0 56 0c53 0 96-43 96-96s-43-96-96-96l-56 0-8 0zm64 16c44.2 0 80 35.8 80 80s-35.8 80-80 80l-48 0 0-160 48 0zm-256-8l0-8-16 0 0 8 0 88 0 88 0 8 16 0 0-8 0-80 128 0 0 80 0 8 16 0 0-8 0-88 0-88 0-8-16 0 0 8 0 80-128 0 0-80z"/></svg>

<svg xmlns="http://www.w3.org/2000/svg" viewBox="0 0 576 512"><!--! Font Awesome Pro 6.5.2 by @fontawesome - https://fontawesome.com License - https://fontawesome.com/license (Commercial License) Copyright 2024 Fonticons, Inc. --><path d="M560 48V464H16V48H560zM16 32H0V48 464v16H16 560h16V464 48 32H560 16zM320 160v8V344v8h8 56c53 0 96-43 96-96s-43-96-96-96H328h-8zm64 16c44.2 0 80 35.8 80 80s-35.8 80-80 80H336V176h48zm-256-8v-8H112v8 88 88 8h16v-8V264H256v80 8h16v-8V256 168v-8H256v8 80H128V168z"/></svg>
